/* XPM */
static char * product_logo_32_xpm[] = {
"32 32 501 2",
"  	c None",
". 	c #529299",
"+ 	c #55A2A7",
"@ 	c #4F7E8B",
"# 	c #528E98",
"$ 	c #538D98",
"% 	c #4F808C",
"& 	c #55969E",
"* 	c #539299",
"= 	c #56A4A9",
"- 	c #508690",
"; 	c #519CA0",
"> 	c #508992",
", 	c #51959C",
"' 	c #50969C",
") 	c #51949B",
"! 	c #508E95",
"~ 	c #52989D",
"{ 	c #528891",
"] 	c #55A3A7",
"^ 	c #56A2A6",
"/ 	c #4F7F8C",
"( 	c #50949A",
"_ 	c #4F9196",
": 	c #4F949A",
"< 	c #4E8A92",
"[ 	c #4B7885",
"} 	c #586F80",
"| 	c #556C7E",
"1 	c #4C7986",
"2 	c #4F8A93",
"3 	c #509299",
"4 	c #529097",
"5 	c #519199",
"6 	c #579FA4",
"7 	c #60B3B5",
"8 	c #518F97",
"9 	c #4E8A91",
"0 	c #4F8F95",
"a 	c #4A7380",
"b 	c #496479",
"c 	c #4C667F",
"d 	c #5D7689",
"e 	c #D3DDDE",
"f 	c #BFC8CA",
"g 	c #587287",
"h 	c #4C6A80",
"i 	c #4C667D",
"j 	c #4D7583",
"k 	c #508891",
"l 	c #53949A",
"m 	c #56B4B5",
"n 	c #58A2A7",
"o 	c #529BA1",
"p 	c #52A5A8",
"q 	c #4D8C93",
"r 	c #486275",
"s 	c #4A697D",
"t 	c #4C6C83",
"u 	c #8EA0AA",
"v 	c #DEE6E7",
"w 	c #DEE5E5",
"x 	c #C9D0D0",
"y 	c #C7D0D0",
"z 	c #8798A4",
"A 	c #4D6D83",
"B 	c #4C6B7E",
"C 	c #4A6578",
"D 	c #55A4A7",
"E 	c #549CA1",
"F 	c #57A2A7",
"G 	c #57B0B2",
"H 	c #529298",
"I 	c #508C94",
"J 	c #4C818B",
"K 	c #496579",
"L 	c #4B6B80",
"M 	c #8094A0",
"N 	c #C3D0D0",
"O 	c #E3ECE9",
"P 	c #BEC6C6",
"Q 	c #53646E",
"R 	c #52636D",
"S 	c #B0B8B8",
"T 	c #D0D8D6",
"U 	c #B4C0C2",
"V 	c #7D909C",
"W 	c #4C6B80",
"X 	c #4B677B",
"Y 	c #4C808B",
"Z 	c #53959A",
"` 	c #5FACAF",
" .	c #52969C",
"..	c #4C7480",
"+.	c #748591",
"@.	c #9FACB2",
"#.	c #C6CED1",
"$.	c #D9E2E0",
"%.	c #C7CFCE",
"&.	c #7B868A",
"*.	c #435C6D",
"=.	c #4C6B82",
"-.	c #435B6D",
";.	c #737E82",
">.	c #B3BBBC",
",.	c #C6CFCF",
"'.	c #BAC3C6",
").	c #9AA7AD",
"!.	c #7A8995",
"~.	c #549197",
"{.	c #518791",
"].	c #528993",
"^.	c #5BA4A8",
"/.	c #508F96",
"(.	c #509398",
"_.	c #6C818B",
":.	c #C4CCCD",
"<.	c #BFC5C7",
"[.	c #A5ACAE",
"}.	c #737D83",
"|.	c #3F5766",
"1.	c #476577",
"2.	c #4B6D84",
"3.	c #4D718B",
"4.	c #4E728B",
"5.	c #476377",
"6.	c #3E5563",
"7.	c #677178",
"8.	c #98A0A2",
"9.	c #AFBABB",
"0.	c #B6C0C1",
"a.	c #6B7B86",
"b.	c #55A0A4",
"c.	c #60B5B6",
"d.	c #52999D",
"e.	c #4D838B",
"f.	c #4E8B92",
"g.	c #6B7F8A",
"h.	c #C2CACB",
"i.	c #6A767C",
"j.	c #415A6A",
"k.	c #476376",
"l.	c #768A97",
"m.	c #788F9C",
"n.	c #7A91A0",
"o.	c #7E94A3",
"p.	c #7F96A4",
"q.	c #7E94A2",
"r.	c #658092",
"s.	c #4A6B80",
"t.	c #597180",
"u.	c #717F87",
"v.	c #647178",
"w.	c #B9C2C3",
"x.	c #697985",
"y.	c #4F8C93",
"z.	c #4F858E",
"A.	c #53979C",
"B.	c #4C878E",
"C.	c #519EA1",
"D.	c #496679",
"E.	c #677D8A",
"F.	c #BAC5C5",
"G.	c #697A85",
"H.	c #4C6880",
"I.	c #4C6A81",
"J.	c #98A3A7",
"K.	c #D4DCDC",
"L.	c #D8E1E0",
"M.	c #DFE7E6",
"N.	c #E3EBEA",
"O.	c #D6DFDE",
"P.	c #577081",
"Q.	c #899AA6",
"R.	c #C5CDCE",
"S.	c #9DA8AE",
"T.	c #667883",
"U.	c #B5BEC0",
"V.	c #647682",
"W.	c #446275",
"X.	c #4D9D9E",
"Y.	c #447C84",
"Z.	c #469697",
"`.	c #3F8186",
" +	c #427F86",
".+	c #3E576C",
"++	c #3F5C6E",
"@+	c #A0AAAC",
"#+	c #6A7B86",
"$+	c #44637A",
"%+	c #44657B",
"&+	c #768690",
"*+	c #CED6D7",
"=+	c #3E525E",
"-+	c #465966",
";+	c #445863",
">+	c #3C5362",
",+	c #4B677A",
"'+	c #B1BABB",
")+	c #C3CCCC",
"!+	c #A9B4B7",
"~+	c #697983",
"{+	c #ACB6B7",
"]+	c #3E5668",
"^+	c #375167",
"/+	c #3F878A",
"(+	c #397F84",
"_+	c #409193",
":+	c #43A5A5",
"<+	c #409596",
"[+	c #3A7B82",
"}+	c #355366",
"|+	c #355164",
"1+	c #829396",
"2+	c #67757E",
"3+	c #3B5C71",
"4+	c #3C5E75",
"5+	c #71848F",
"6+	c #BFCACA",
"7+	c #8D9BA3",
"8+	c #95A4AC",
"9+	c #96A4AD",
"0+	c #506E83",
"a+	c #647A8A",
"b+	c #B8C1C2",
"c+	c #A6B1B4",
"d+	c #6F787D",
"e+	c #66737B",
"f+	c #7F8E92",
"g+	c #274255",
"h+	c #29475B",
"i+	c #33797D",
"j+	c #378E8F",
"k+	c #449E9D",
"l+	c #3A8E90",
"m+	c #2F6971",
"n+	c #2A4459",
"o+	c #2B455C",
"p+	c #5E7478",
"q+	c #69747A",
"r+	c #304E67",
"s+	c #315169",
"t+	c #617884",
"u+	c #9EAAAF",
"v+	c #98AAAE",
"w+	c #A7B9BD",
"x+	c #8FA0A7",
"y+	c #566F82",
"z+	c #9CA7AC",
"A+	c #8B9A9D",
"B+	c #687B80",
"C+	c #274254",
"D+	c #6A747A",
"E+	c #67797D",
"F+	c #284357",
"G+	c #2A455A",
"H+	c #32787D",
"I+	c #3C8E90",
"J+	c #409493",
"K+	c #378284",
"L+	c #3B9495",
"M+	c #316D74",
"N+	c #294257",
"O+	c #2B465A",
"P+	c #607377",
"Q+	c #757E82",
"R+	c #2E4B63",
"S+	c #33536A",
"T+	c #607784",
"U+	c #A0ACB1",
"V+	c #597081",
"W+	c #99AEB9",
"X+	c #98ADBA",
"Y+	c #AFBCC1",
"Z+	c #83A0A2",
"`+	c #869196",
" @	c #385862",
".@	c #2B485E",
"+@	c #737C80",
"@@	c #51666B",
"#@	c #294459",
"$@	c #2A4359",
"%@	c #34787C",
"&@	c #388D8D",
"*@	c #3B8082",
"=@	c #3E8888",
"-@	c #378788",
";@	c #327579",
">@	c #274456",
",@	c #294557",
"'@	c #607C7C",
")@	c #606E71",
"!@	c #57717C",
"~@	c #425F74",
"{@	c #748893",
"]@	c #A1AFB5",
"^@	c #BAC6CB",
"/@	c #CED7DC",
"(@	c #E3EAEB",
"_@	c #A5BFC0",
":@	c #97A3AB",
"<@	c #799698",
"[@	c #3A586C",
"}@	c #536470",
"|@	c #6B767B",
"1@	c #3E656A",
"2@	c #2A465B",
"3@	c #284457",
"4@	c #317579",
"5@	c #388E8E",
"6@	c #398D8D",
"7@	c #347A7B",
"8@	c #357F81",
"9@	c #284256",
"0@	c #284257",
"a@	c #435A5D",
"b@	c #637878",
"c@	c #545E68",
"d@	c #536B76",
"e@	c #5D6A70",
"f@	c #62777C",
"g@	c #879298",
"h@	c #B6C3C6",
"i@	c #9CB3B8",
"j@	c #7E8D98",
"k@	c #7A9093",
"l@	c #274154",
"m@	c #2C4A62",
"n@	c #5D696F",
"o@	c #577172",
"p@	c #223A4D",
"q@	c #29455A",
"r@	c #274357",
"s@	c #3A9392",
"t@	c #347E7F",
"u@	c #368486",
"v@	c #358081",
"w@	c #316872",
"x@	c #294258",
"y@	c #45575F",
"z@	c #525C5F",
"A@	c #2C353D",
"B@	c #4D555D",
"C@	c #5B666D",
"D@	c #79868B",
"E@	c #71888C",
"F@	c #59757D",
"G@	c #7C8891",
"H@	c #778C90",
"I@	c #2D4C59",
"J@	c #2B4760",
"K@	c #425363",
"L@	c #616D70",
"M@	c #3C6063",
"N@	c #274054",
"O@	c #284459",
"P@	c #357A7E",
"Q@	c #306F74",
"R@	c #3A8889",
"S@	c #3C8F8D",
"T@	c #388889",
"U@	c #358083",
"V@	c #243E4F",
"W@	c #325456",
"X@	c #45605F",
"Y@	c #455457",
"Z@	c #456665",
"`@	c #2F4D52",
" #	c #57626A",
".#	c #748388",
"+#	c #5A7D7E",
"@#	c #233B4C",
"##	c #2D4B61",
"$#	c #364F62",
"%#	c #5F6B6F",
"&#	c #4F6C6C",
"*#	c #1E3442",
"=#	c #274557",
"-#	c #358082",
";#	c #368485",
">#	c #3E8F8D",
",#	c #337B7C",
"'#	c #327577",
")#	c #347379",
"!#	c #253F51",
"~#	c #2E434F",
"{#	c #677073",
"]#	c #575F64",
"^#	c #637274",
"/#	c #486667",
"(#	c #2D4C52",
"_#	c #294356",
":#	c #28455C",
"<#	c #374E62",
"[#	c #667074",
"}#	c #516467",
"|#	c #27454B",
"1#	c #254052",
"2#	c #35747C",
"3#	c #306E73",
"4#	c #317678",
"5#	c #3D8A89",
"6#	c #368685",
"7#	c #388988",
"8#	c #294D5E",
"9#	c #273E53",
"0#	c #2E3943",
"a#	c #4C555A",
"b#	c #5E6467",
"c#	c #2B3B47",
"d#	c #274257",
"e#	c #2B475F",
"f#	c #3C4F61",
"g#	c #5B6569",
"h#	c #4E6A68",
"i#	c #305D5A",
"j#	c #233B4D",
"k#	c #283F56",
"l#	c #305D69",
"m#	c #378488",
"n#	c #367E80",
"o#	c #46A5A3",
"p#	c #3C8C8A",
"q#	c #327E7E",
"r#	c #358484",
"s#	c #2D5D66",
"t#	c #223A4A",
"u#	c #2E5654",
"v#	c #495859",
"w#	c #586061",
"x#	c #515D65",
"y#	c #4F5C65",
"z#	c #525C5D",
"A#	c #425556",
"B#	c #2A5251",
"C#	c #213948",
"D#	c #263F54",
"E#	c #2D5B68",
"F#	c #3C9293",
"G#	c #32787A",
"H#	c #3C8588",
"I#	c #3EA4A1",
"J#	c #347879",
"K#	c #358383",
"L#	c #33767A",
"M#	c #263F53",
"N#	c #21394A",
"O#	c #224447",
"P#	c #405E5C",
"Q#	c #485253",
"R#	c #424F4F",
"S#	c #385A59",
"T#	c #1D3A3E",
"U#	c #213949",
"V#	c #263E52",
"W#	c #33757B",
"X#	c #378487",
"Y#	c #357A7C",
"Z#	c #44A7A4",
"`#	c #398986",
" $	c #2F6E70",
".$	c #317A7C",
"+$	c #388484",
"@$	c #2C5865",
"#$	c #244051",
"$$	c #1B2C3B",
"%$	c #2A4D4D",
"&$	c #264849",
"*$	c #1A2C3A",
"=$	c #21394B",
"-$	c #2B5B65",
";$	c #368283",
">$	c #2E7176",
",$	c #307377",
"'$	c #378687",
")$	c #458E8D",
"!$	c #348687",
"~$	c #358687",
"{$	c #399190",
"]$	c #337B7D",
"^$	c #275F64",
"/$	c #337D7E",
"($	c #3A9393",
"_$	c #368A8A",
":$	c #307577",
"<$	c #388787",
"[$	c #4D9695",
"}$	c #468F8D",
"|$	c #348585",
"1$	c #2C6268",
"2$	c #348283",
"3$	c #358486",
"4$	c #348182",
"5$	c #2E7175",
"6$	c #348484",
"7$	c #539391",
"8$	c #549090",
"9$	c #49A6A1",
"0$	c #479E9D",
"a$	c #458D8B",
"b$	c #80BBB7",
"                                                                ",
"                                                                ",
"                                                                ",
"                        . + @ # $ % & *                         ",
"                    = - ; > , , ' ) ! ~ { ]                     ",
"                ^ / ( _ : < [ } | 1 2 3 4 5 @ 6                 ",
"              7 8 9 0 a b c d e f g h i j ! k l m               ",
"            n o p q r s t u v w x y z A B C 9 D E F             ",
"          G H I J K L M N O P Q R S T U V W X Y Z * `           ",
"           ...! +.@.#.$.%.&.*.L =.-.;.>.,.'.).!.~.{.].          ",
"        ^./.(._.:.<.[.}.|.1.2.3.4.2.5.6.7.8.9.0.a./.b.c.        ",
"        d.e.f.g.h.i.j.k.l.m.n.o.p.q.r.s.t.u.v.w.x.y.z.A.        ",
"        B.C.D.E.F.G.H.I.J.K.L.M.N.O.P.Q.R.S.T.U.V.W.X.Y.        ",
"      Z.`. +.+++@+#+$+%+&+*+=+-+;+>+,+'+)+!+~+{+]+^+/+(+_+      ",
"      :+<+[+}+|+1+2+3+4+5+6+7+8+9+0+a+b+c+d+e+f+g+h+i+j+        ",
"      k+l+m+n+o+p+q+r+s+t+u+v+w+x+y+z+A+B+C+D+E+F+G+H+I+J+      ",
"      K+L+M+N+O+P+Q+R+S+T+U+V+W+X+Y+Z+`+ @.@+@@@#@$@%@&@*@      ",
"      =@-@;@>@,@'@)@!@~@{@]@^@/@(@_@:@<@[@}@|@1@2@3@4@5@6@      ",
"        7@8@9@0@a@b@c@d@e@f@g@h@i@j@k@l@m@n@o@p@q@r@s@t@        ",
"        u@v@w@x@y@z@A@B@C@D@E@F@G@H@I@J@K@L@M@N@O@P@Q@R@        ",
"        S@T@U@>@V@W@X@Y@Z@`@ #.#+#@###$#%#&#*#=#0@-#;#>#        ",
"          ,#'#)#0@!#~#{#]#^#/#(#_#:#<#[#}#|#1#x@2#3#4#          ",
"          5#6#7#8#0@9#0#a#b#c#d#e#f#g#h#i#j#k#l#m#n#o#          ",
"            p#q#r#s#C+t#u#v#w#x#y#z#A#B#C#D#E#F#G#H#            ",
"              I#J#K#L#M#N#O#P#Q#R#S#T#U#V#W#X#Y#Z#              ",
"                `# $.$+$@$#$$$%$&$*$=$-$;$>$,$'$                ",
"                  )$!$G#~${$]$^$^$/$($_$:$<$[$                  ",
"                      }$|$1$2$3$u@4$5$6$7$                      ",
"                            8$9$0$a$b$                          ",
"                                                                ",
"                                                                ",
"                                                                "};
